packages/dnb-eufemia/assets/icons/undo.svg

<svg width="16" height="16" viewBox="0 0 16 16" fill="none" xmlns="http://www.w3.org/2000/svg">
<path d="M3.81818 7.96591C3.81818 8.38012 3.4824 8.71591 3.06818 8.71591C2.65397 8.71591 2.31818 8.38012 2.31818 7.96591H3.81818ZM9.03409 14.6818C8.61988 14.6818 8.28409 14.346 8.28409 13.9318C8.28409 13.5176 8.61988 13.1818 9.03409 13.1818V14.6818ZM3.06818 9L3.59851 9.53033C3.45786 9.67098 3.26709 9.75 3.06818 9.75C2.86927 9.75 2.6785 9.67098 2.53785 9.53033L3.06818 9ZM4.60603 6.40149C4.89893 6.1086 5.3738 6.1086 5.66669 6.40149C5.95959 6.69438 5.95959 7.16926 5.66669 7.46215L4.60603 6.40149ZM0.46967 7.46215C0.176777 7.16926 0.176777 6.69438 0.46967 6.40149C0.762564 6.1086 1.23744 6.1086 1.53033 6.40149L0.46967 7.46215ZM14.25 7.96591C14.25 5.08524 11.9148 2.75 9.03409 2.75V1.25C12.7432 1.25 15.75 4.25682 15.75 7.96591H14.25ZM9.03409 2.75C6.15342 2.75 3.81818 5.08524 3.81818 7.96591H2.31818C2.31818 4.25682 5.325 1.25 9.03409 1.25V2.75ZM9.03409 13.1818C11.9148 13.1818 14.25 10.8466 14.25 7.96591H15.75C15.75 11.675 12.7432 14.6818 9.03409 14.6818V13.1818ZM2.53785 8.46967L4.60603 6.40149L5.66669 7.46215L3.59851 9.53033L2.53785 8.46967ZM2.53785 9.53033L0.46967 7.46215L1.53033 6.40149L3.59851 8.46967L2.53785 9.53033Z" fill="black"/>
</svg>

<svg width="16" height="16" viewBox="0 0 16 16" fill="none" xmlns="http://www.w3.org/2000/svg"><path d="M3.818 7.966a.75.75 0 1 1-1.5 0h1.5Zm5.216 6.716a.75.75 0 0 1 0-1.5v1.5ZM3.068 9l.53.53a.75.75 0 0 1-1.06 0l.53-.53Zm1.538-2.599a.75.75 0 0 1 1.06 1.061l-1.06-1.06ZM.47 7.462a.75.75 0 0 1 1.06-1.06L.47 7.461Zm13.78.504A5.216 5.216 0 0 0 9.034 2.75v-1.5a6.716 6.716 0 0 1 6.716 6.716h-1.5ZM9.034 2.75a5.216 5.216 0 0 0-5.216 5.216h-1.5A6.716 6.716 0 0 1 9.034 1.25v1.5Zm0 10.432a5.216 5.216 0 0 0 5.216-5.216h1.5a6.716 6.716 0 0 1-6.716 6.716v-1.5ZM2.538 8.47 4.606 6.4l1.06 1.061L3.6 9.53 2.538 8.47Zm0 1.06L.47 7.462l1.06-1.06L3.6 8.47 2.538 9.53Z" fill="#000"/></svg>
